Catalina-light/actions/22/draw-path.svg

<svg xmlns="http://www.w3.org/2000/svg" viewBox="0 0 22 22">
  <defs id="defs3051">
    <style type="text/css" id="current-color-scheme">
      .ColorScheme-Text {
        color:#4d4d4d
      }
      </style>
  </defs>
 <path 
     style="fill:currentColor;fill-opacity:1;stroke:none"      
	 class="ColorScheme-Text"
        d="m 3.0546873,3.0508 0,2.9785 0.9921875,0 0,7.9434 0,3.9804 3.9804688,0 7.9394544,0 0,0.9961 2.978515,0 0,-2.9785 -2.978515,0 0,0.9922 -6.9492201,0 -3.3652343,0 L 8.019531,16.043 C 8.0819,16.019 8.1368666,15.981 8.1816404,15.9317 l 6.2949226,-6.918 -2.455079,-2.2344 -6.2949217,6.918 c -0.04485,0.049 -0.077325,0.1079 -0.095703,0.1719 l -0.5898438,2.0761 0,-2.9629 0,-6.9492 0.9921875,0 0,-2.9785 -2.9785156,0 z M 14.753907,3.9629 c -0.113902,0.01 -0.221934,0.056 -0.298828,0.1406 l -0.921875,1.0157 2.455078,2.2343 0.921875,-1.0136 c 0.160129,-0.176 0.148611,-0.4492 -0.02734,-0.6094 L 15.064454,4.0762 C 14.979914,3.9992 14.867783,3.9575 14.753907,3.9629 Z m -1.511718,1.4746 -0.320314,0.3516 2.455079,2.2344 0.322265,-0.3516 -2.45703,-2.2344 z M 12.632812,6.1074 12.3125,6.461 14.767579,8.6953 15.087892,8.3418 12.632812,6.1074 Z"
     />
</svg>

<svg viewBox="0 0 22 22" xmlns="http://www.w3.org/2000/svg">
<defs>
<style id="current-color-scheme" type="text/css">.ColorScheme-Text {
        color:#4d4d4d
      }</style>
</defs>
<path class="ColorScheme-Text" d="m3.0547 3.0508v2.9785h0.99219v11.924h11.92v0.9961h2.9785v-2.9785h-2.9785v0.9922h-10.314l2.3672-0.9199c0.062369-0.024 0.11734-0.062 0.16211-0.1113l6.2949-6.918-2.4551-2.2344-6.2949 6.918c-0.04485 0.049-0.077325 0.1079-0.095703 0.1719l-0.58984 2.0761v-9.9121h0.99219v-2.9785h-2.9785zm11.699 0.9121c-0.1139 0.01-0.22193 0.056-0.29883 0.1406l-0.92188 1.0157 2.4551 2.2343 0.92188-1.0136c0.16013-0.176 0.14861-0.4492-0.02734-0.6094l-1.8184-1.6543c-0.08454-0.077-0.19667-0.1187-0.31055-0.1133zm-1.5117 1.4746-0.32031 0.3516 2.4551 2.2344 0.32226-0.3516-2.457-2.2344zm-0.60938 0.6699-0.32031 0.3536 2.4551 2.2343 0.32031-0.3535-2.4551-2.2344z" fill="currentColor"/>
</svg>
